X:723
T: Letting The Ranch Go Fallow
Z: Piano Box Version by Martin Fleischmann
H: Created 2015-05-02 /  Last Modified 2015-05-10
R: jig
M: 6/8
L: 1/8
K: Dmin
F|:GAG FGA|cAG FDC|DA,A, DEF|EDC DEF|
G2G FGA|cAG FDC|DA,A, DEF|EDC D3:|
|:A,DF A,DF|CEG GAB|Ade dcA|AGF EDC|
A,DF A,DF|CEG GAB|1Ade dcA|GEC D2 G,:|2 Afe dec|AGE DEF||

